img/footer_bg.svg

<svg width="574" height="231" viewBox="0 0 574 231" fill="none" xmlns="http://www.w3.org/2000/svg">
<path d="M435.156 482.112L24.3804 372.046C17.6342 370.25 11.2937 367.196 5.72169 363.058C0.149674 358.92 -4.5445 353.78 -8.09222 347.931C-11.6399 342.082 -13.9716 335.64 -14.9537 328.972C-15.9359 322.305 -15.5493 315.544 -13.816 309.075L58.7645 38.2011C61.0814 29.5531 65.7295 21.6928 72.2419 15.4096C78.7543 9.12632 86.9018 4.64125 95.8662 2.40475C104.831 0.16825 114.296 0.259054 123.313 2.66804C132.33 5.07703 140.58 9.71939 147.235 16.129L300.356 163.82L506.541 112.405C515.509 110.181 524.975 110.286 533.988 112.708C543.001 115.13 551.244 119.784 557.889 126.203C564.535 132.623 569.348 140.58 571.846 149.278C574.345 157.976 574.44 167.107 572.122 175.755L499.542 446.629C496.049 459.664 487.308 470.721 475.236 477.374C463.165 484.026 448.75 485.731 435.156 482.112Z" fill="#E9D7FE"/>
</svg>

<svg width="574" height="231" fill="none" xmlns="http://www.w3.org/2000/svg"><path d="M435.156 482.112 24.38 372.046a55.072 55.072 0 0 1-18.658-8.988C.15 358.92-4.545 353.78-8.092 347.931c-3.548-5.849-5.88-12.291-6.862-18.959a49.142 49.142 0 0 1 1.138-19.897l72.58-270.874c2.317-8.648 6.965-16.508 13.478-22.791 6.512-6.284 14.66-10.77 23.624-13.005 8.965-2.237 18.43-2.146 27.447.263s17.267 7.051 23.922 13.461L300.356 163.82l206.185-51.415c8.968-2.224 18.434-2.119 27.447.303 9.013 2.422 17.256 7.076 23.901 13.495 6.646 6.42 11.459 14.377 13.957 23.075 2.499 8.698 2.594 17.829.276 26.477l-72.58 270.874c-3.493 13.035-12.234 24.092-24.306 30.745-12.071 6.652-26.486 8.357-40.08 4.738Z" fill="#E9D7FE"/></svg>
